img/contacts/mail.svg

<svg viewBox="0 0 26 20" fill="none" xmlns="http://www.w3.org/2000/svg">
<path d="M23.7088 0H2.19157C0.996169 0 0 1 0 2.2V17.8C0 19 0.996169 20 2.19157 20H23.8084C25.0038 20 26 19 26 17.8V2.2C25.9004 1 24.9042 0 23.7088 0ZM2.19157 1.1H23.8084C23.908 1.1 24.0077 1.1 24.0077 1.1C22.1149 2.9 15.9387 8.7 13.7471 10.7C13.5479 10.9 13.3487 11 12.9502 11C12.5517 11 12.3525 10.8 12.1533 10.7C9.96169 8.8 3.78544 2.9 1.89272 1.2C1.99234 1.1 2.09195 1.1 2.19157 1.1ZM1.09579 17.8V2.2C1.09579 2.1 1.09579 2 1.1954 1.9C2.59004 3.2 6.97318 7.3 9.76245 9.9C6.97318 12.4 2.68966 16.6 1.1954 18C1.09579 18 1.09579 17.9 1.09579 17.8ZM23.7088 18.9H2.19157C2.09195 18.9 1.99234 18.9 1.99234 18.8C3.48659 17.3 7.86973 13.1 10.5594 10.7C10.9579 11 11.2567 11.3 11.4559 11.6C11.8544 12 12.4521 12.2 12.9502 12.2C13.4483 12.2 14.046 12 14.4444 11.6C14.7433 11.4 15.0421 11.1 15.341 10.7C18.1303 13.1 22.4138 17.4 23.908 18.8C23.908 18.9 23.8084 18.9 23.7088 18.9ZM24.8046 17.8C24.8046 17.9 24.8046 18 24.705 18.1C23.3103 16.7 18.9272 12.5 16.1379 10C18.9272 7.4 23.3103 3.3 24.705 2C24.705 2.1 24.8046 2.2 24.8046 2.3V17.8Z" fill="#8E81AC"/>
</svg>

<svg viewBox="0 0 26 20" fill="none" xmlns="http://www.w3.org/2000/svg"><path d="M23.709 0H2.192C.996 0 0 1 0 2.2v15.6C0 19 .996 20 2.192 20h21.616C25.004 20 26 19 26 17.8V2.2C25.9 1 24.904 0 23.709 0zM2.192 1.1h21.816c-1.893 1.8-8.07 7.6-10.26 9.6-.2.2-.4.3-.798.3s-.598-.2-.797-.3C9.962 8.8 3.785 2.9 1.893 1.2c.1-.1.199-.1.299-.1zM1.096 17.8V2.2c0-.1 0-.2.1-.3 1.394 1.3 5.777 5.4 8.566 8-2.789 2.5-7.072 6.7-8.567 8.1-.1 0-.1-.1-.1-.2zm22.613 1.1H2.192c-.1 0-.2 0-.2-.1 1.495-1.5 5.878-5.7 8.567-8.1.399.3.698.6.897.9.398.4.996.6 1.494.6s1.096-.2 1.494-.6c.3-.2.598-.5.897-.9 2.79 2.4 7.073 6.7 8.567 8.1 0 .1-.1.1-.2.1zm1.096-1.1c0 .1 0 .2-.1.3-1.395-1.4-5.778-5.6-8.567-8.1 2.79-2.6 7.172-6.7 8.567-8 0 .1.1.2.1.3v15.5z" fill="#8E81AC"/></svg>
